X:1
T:Raindrop Melody Revised
C:AI Composer
M:4/4
L:1/4
Q:1/4=120
K:Dm
|"Dm" d2 "A7/C#" cB | "Bb" AG "Gm/A" F2 | "Gm/Bb" G2 "A7" F2 | "Dm" D4 |
|"Dm/C" c2 "Bdim/A" BA | "Gm" G3 "A7" A | "Dm/F" F2 "E7/G#" GA | "Am" A4 |
|"Dm" d3 "A7/C#" c | "Bb" AG "Gm/A" F2 | "Gm/Bb" G2 "A7" F2 | "Dm" D4 |
|"Dm/C" c2 "Bdim/A" BA | "Gm" G3 "A7" A | "Dm/F" F2 "E7/G#" GA | "Am" A4 |
```

```abc
